svg/300/sharp/texture-fill.svg

<svg xmlns="http://www.w3.org/2000/svg" width="48" height="48" viewBox="0 -960 960 960"><path d="M145.54-143.694v-34.085l637.536-637.912h31.999v33.086L176.924-143.694H145.54Zm-5.539-270.846v-65.229l340.23-340.23h65.229L140.001-414.54Zm0-306.153v-99.306h99.306l-99.306 99.306Zm580.692 580.692 99.306-99.306v99.306h-99.306Zm-306.153 0L819.999-545.46v65.229l-340.23 340.23H414.54Z"/></svg>

<svg xmlns="http://www.w3.org/2000/svg" width="48" height="48" viewBox="0 -960 960 960"><path d="M145.54-143.69v-34.09l637.54-637.91h32v33.08L176.92-143.69h-31.38ZM140-414.54v-65.23L480.23-820h65.23L140-414.54Zm0-306.15V-820h99.31L140-720.69ZM720.69-140 820-239.31V-140h-99.31Zm-306.15 0L820-545.46v65.23L479.77-140h-65.23Z"/></svg>
